**kern
*staff3
*tb8
=1-
*clefF4
*met(c)
*M4/4
1C/
.
.
.
.
.
.
.
=2
1C/
.
.
.
.
.
.
.
=3
4E\ 4G\
.
4D\ 4G\
.
4BB\ 4G\
.
4C\ 4G\
.
=4
!!linebreak:original
2.GG/ 2.G/
.
.
.
.
.
4r
.
=5
1DD/
.
.
.
.
.
.
.
=6
2GG/
.
.
.
4AA/
.
4BB/
.
=7:|!
!!linebreak:original
=
2C\ 2G\
.
.
.
4D\ 4G\
.
4D\ 4F#\
.
=8
8GG\L
8D\
8G\
8B\J
4r
.
8d\L
8c\J
=9
*^
2B/	1G/
.	.
.	.
.	.
4d/	.
.	.
4c/	.
.	.
*v	*v
=10
!!linebreak:original
*^
2B/	1G/
.	.
.	.
.	.
4d/	.
.	.
8c/L	.
8B/J	.
*v	*v
=11
1C/
.
.
.
.
.
.
.
=12
1C/
.
.
.
.
.
.
.
=13
*^
4c/	2.G\
.	.
8f/L	.
8e-/J	.
4d/	.
.	.
4B/	4G\
.	.
*v	*v
=14
!!linebreak:original
2C\ 2c\
.
.
.
4FF/
.
4AA-/
.
=15
2C/
.
.
.
4FF/
.
4AA-/
.
=16
2C/
.
.
.
4c\
.
4B\
.
=17
!!linebreak:original
4A\ 4c\
.
4G\ 4c\
.
4F\ 4c\
.
4E\ 4c\
.
=18
*^
1ryy	4D\ 4F\
.	.
*v	*v
4r
.
.
.
.
.
*^
4B/	2F\
.	.
4d/	.
.	.
=19	=19
4c/	2E\
.	.
2B-/	.
.	.
.	4F\
.	.
4F/	4AA\
.	.
*v	*v
=20
!!linebreak:original
*^
2G/	2GG\
.	.
.	.
.	.
4A/	4FF\
.	.
4F/	4GG\
.	.
*v	*v
=21
*^
*	*^
2CC\	4E/ 4c/	1C/
.	.	.
*	*v	*v
.	4E/ 4G/
.	.
2FF\	4F/ 4A/
.	.
.	8A/L 8c/L
.	8F/J 8A/J
=22	=22
2F/ 2A/	1CC/ 1C/
.	.
.	.
.	.
4E/ 4G/	.
.	.
4r	.
.	.
*v	*v
=23
!!linebreak:original
*k[b-e-a-]
*met(c)
*M4/4
2.EE-/ 2.E-/
.
.
.
.
.
4DD-/ 4D-/
.
=24
2.CC/ 2.C/
.
.
.
.
.
4DDn/ 4Dn/
.
=25
4EE-/ 4E-/
.
4DD/ 4D/
.
2CC/ 2C/
.
.
.
=26
!!linebreak:original
2CC/ 2C/
.
.
.
2r
.
.
.
=27
2DD/ 2D/
.
.
.
2CC/ 2C/
.
.
.
=28
1BBB-/ 1BB-/
.
.
.
.
.
.
.
=29
!!linebreak:original
2EE-/ 2E-/
.
.
.
2DD/ 2D/
.
.
.
=30
1CC/ 1C/
.
.
.
.
.
.
.
=31
2CC#/ 2C#/
.
.
.
2EEn/ 2En/
.
.
.
=32
!!linebreak:original
1DD/ 1D/
.
.
.
.
.
.
.
=33
2GG/ 2G/
.
.
.
2FF/ 2F/
.
.
.
=34
1EE-/ 1E-/
.
.
.
.
.
.
.
=35
!!linebreak:original
2AA-\ 2A-\
.
.
.
2GG/ 2G/
.
.
.
=36
4FF/ 4F/
.
4EE-/ 4E-/
.
4DD/ 4D/
.
4CC/ 4C/
.
=37
4BBB-/ 4BB-/
.
4BBB-/ 4BB-/
.
4CC/ 4C/
.
4DD/ 4D/
.
=38
!!linebreak:original
2EE-/ 2E-/
.
.
.
2EE-/ 2E-/
.
.
.
=39
2EE-/ 2E-/
.
.
.
2DD/ 2D/
.
.
.
=40
4EE-/ 4E-/
.
4EE-/ 4E-/
.
4FF/ 4F/
.
4BBB-/ 4BB-/
.
=41
2EE-/ 2E-/
.
.
.
2DD-/ 2D-/
.
.
.
=42
!!linebreak:original
2CC-/ 2C-/
.
.
.
2BBB-/ 2BB-/
.
.
.
=43
2AAAn/ 2AAn/
.
.
.
2FFF/ 2FF/
.
.
.
=44
4BBB-/ 4BB-/
.
4AA-\ 4A-\
.
4GG/ 4G/
.
4FF/ 4F/
.
=45
!!linebreak:original
4EE-/ 4E-/
.
4BBn/
.
4C/
.
4GG/
.
=46
4AA-/
.
4EEn/
.
4FF/
.
4GG/
.
=47
2AA-/
.
.
.
2r
.
.
.
=48
*^
8B-/L	1BB-/
8c/J	.
8An/J	.
=	=
*v	*v
=49
!!linebreak:original
2.EE-/ 2.E-/
.
.
.
.
.
4DD-/ 4D-/
.
=50
2.CC/ 2.C/
.
.
.
.
.
4DDn/ 4Dn/
.
=51
4EE-/ 4E-/
.
4DD/ 4D/
.
2CC/ 2C/
.
.
.
=52
!!linebreak:original
2CC/ 2C/
.
.
.
2r
.
.
.
=53
2DD/ 2D/
.
.
.
2CC/ 2C/
.
.
.
=54
1BBB-/ 1BB-/
.
.
.
.
.
.
.
=55
!!linebreak:original
2EE-/ 2E-/
.
.
.
2DD/ 2D/
.
.
.
=56
1CC/ 1C/
.
.
.
.
.
.
.
=57
2BBB-/ 2C#/
.
.
.
2EEn/ 2En/
.
.
.
=58
!!linebreak:original
1D/
.
.
.
.
.
.
.
=59
2GG/ 2G/
.
.
.
2F/
.
.
.
=60
1E-/
.
.
.
.
.
.
.
=61
!!linebreak:original
2AA-\ 2A-\
.
.
.
2GG/ 2G/
.
.
.
=62
4FF/ 4F/
.
4EE-/ 4E-/
.
4DD/ 4D/
.
4CC/ 4C/
.
=63
4BBB-/ 4BB-/
.
4BBB-/ 4BB-/
.
4CC/ 4C/
.
4DD/ 4D/
.
=64
!!linebreak:original
2EE-/ 2E-/
.
.
.
2EE-/ 2E-/
.
.
.
=65
2EE-/ 2E-/
.
.
.
2DD/ 2D/
.
.
.
=66
4EE-/ 4E-/
.
4EE-/ 4E-/
.
4FF/ 4F/
.
4BBB-/ 4BB-/
.
=67
2EE-/ 2E-/
.
.
.
2DD-/ 2D-/
.
.
.
=68
!!linebreak:original
2CC-/ 2C-/
.
.
.
2BBB-/ 2DD/ 2BB-/
.
.
.
=69
2AAAn/ 2AAn/
.
.
.
2FFF/ 2DD/ 2FF/
.
.
.
=70
4BBB-/ 4BB-/
.
4AA-\ 4A-\
.
4GG/ 4G/
.
4FF/ 4F/
.
=71
!!linebreak:original
4E-/
.
4BBn/
.
4C/
.
4GG/
.
=72
4AA-/
.
4EEn/
.
4FF/
.
4GG/
.
=73
2AA-/
.
.
.
2r
.
.
.
=74
1BBB-/ 1BB-/ 8B-/L
.
.
.
.
.
.
.
8c/
8An/
8F#/J
4G/ 4B-/
.
4r
.
=75
2E-/
.
.
.
2r
.
.
.
==
*-
